brandFactory_export/1.Light/Data security_Seguridad de datos_1light.svg

<?xml version="1.0" encoding="UTF-8"?>
<svg width="24px" height="24px" viewBox="0 0 24 24" version="1.1" xmlns="http://www.w3.org/2000/svg" xmlns:xlink="http://www.w3.org/1999/xlink">
    <title>1.Light/Data security_Seguridad de datos_1light</title>
    <g id="Symbols" stroke="none" stroke-width="1" fill="none" fill-rule="evenodd">
        <g id="1.Light/Data-security_Seguridad-de-datos_1light" fill="#5CB615" fill-rule="nonzero">
            <path d="M6.39663866,17.7478992 C7.6302521,17.7277311 7.6302521,16.7563025 7.6302521,16.4403361 C7.6302521,16.1210084 7.6302521,15.1495798 6.37983193,15.1193277 L6.23193277,15.1159664 L6.19495798,15.1159664 C4.98151261,15.1260504 4.98151261,16.0705882 4.98151261,16.4235294 C4.98151261,16.7462185 4.98151261,17.7310924 6.21512605,17.7478992 L6.39663866,17.7478992 L6.39663866,17.7478992 Z M6.40336134,14.1344538 C6.85714286,14.1445378 8.62184874,14.3226891 8.62184874,16.4403361 C8.62184874,18.5613445 6.85378151,18.7294118 6.41008403,18.7361345 C6.35966387,18.7361345 6.31260504,18.7394958 6.26218487,18.7394958 L6.19831933,18.7361345 C5.73109244,18.7294118 3.98655462,18.5613445 3.98655462,16.4235294 C3.98655462,14.2890756 5.71428571,14.1344538 6.18151261,14.1310924 L6.23193277,14.1277311 C6.29243697,14.1277311 6.35294118,14.1310924 6.40336134,14.1344538 L6.40336134,14.1344538 Z M20.312605,21.9932773 C21.8554622,21.5159664 22.6386555,20.8806723 22.6286676,20.107563 L22.5915966,16.2016807 C22.0672269,16.6117647 21.3781513,16.9579832 20.5613445,17.210084 C19.1159664,17.6571429 17.2235294,17.912605 15.2268908,17.9327731 L14.994958,17.9327731 C14.2621849,17.9327731 13.5495798,17.892437 12.8571429,17.8285714 L12.8571429,19.8756303 C12.8605042,20.6386555 12.6218487,21.2436975 12.1546218,21.6773109 C11.7781513,22.0268908 11.3176471,22.1882353 10.9378151,22.2621849 C12.1882353,22.5344538 13.6773109,22.6857143 15.2537815,22.6689076 C17.1563025,22.6521008 18.9512605,22.410084 20.312605,21.9932773 L20.312605,21.9932773 Z M1.34453782,20.9210084 C1.61008403,21.2 2.0302521,21.3411765 2.59495798,21.3411765 L10.2521008,21.3378151 C10.2890756,21.3378151 11.0285714,21.3781513 11.4823529,20.9546218 C11.7411765,20.712605 11.8655462,20.3630252 11.8655462,19.8823529 C11.8621849,17.687395 11.8655462,13.2268908 11.8655462,13.2268908 C11.8689076,13.1831933 11.902521,12.5983193 11.5260504,12.1983193 C11.2605042,11.9159664 10.8302521,11.7714286 10.2521008,11.7714286 C8.03697479,11.7714286 2.88067227,11.7781513 2.61512605,11.7781513 L2.58823529,11.7781513 C2.57478992,11.7781513 2.56134454,11.7781513 2.54789916,11.7747899 C2.54453782,11.7747899 2.51764706,11.7714286 2.47394958,11.7714286 C2.2789916,11.7714286 1.73781513,11.805042 1.37815126,12.1378151 C1.12268908,12.3731092 0.994957983,12.7361345 0.994957983,13.2168067 L0.994957983,19.892437 C0.991596639,19.9327731 0.961344538,20.5210084 1.34453782,20.9210084 Z M6.23193277,6.47731092 C5.29411765,6.48739496 3.1092437,6.82016807 3.1092437,9.76806723 L3.1092437,10.789916 C4.39327731,10.7865546 7.77142857,10.7831933 9.74789916,10.7831933 L9.74789916,9.78823529 C9.74789916,6.86722689 7.52941176,6.50420168 6.57478992,6.48067227 C6.47394958,6.47731092 6.34957983,6.48067227 6.23193277,6.47731092 Z M7.69411765,4.72941176 L7.70756303,5.65378151 C8.96806723,5.9697479 10.7462185,6.91764706 10.7462185,9.79159664 L10.7462185,10.7092437 C12.0201681,10.9983193 13.5495798,11.1495798 15.1630252,11.1260504 C17.0689076,11.1092437 18.8638655,10.8672269 20.2117647,10.4504202 C21.5563025,10.0336134 22.2756303,9.41176471 22.5243697,8.94453782 L22.4840336,4.61176471 C21.9865546,5.00168067 21.3142857,5.33109244 20.4504202,5.6 C19.0084034,6.04705882 17.112605,6.30252101 15.1159664,6.31932773 L14.8773109,6.31932773 C12.9647059,6.31932773 11.1563025,6.10420168 9.76470588,5.70084034 C8.88739496,5.44201681 8.19831933,5.11932773 7.69411765,4.72941176 L7.69411765,4.72941176 Z M10,1.69747899 C8.7092437,2.09747899 7.92941176,2.62857143 7.73781513,3.23697479 C7.74117647,3.24369748 7.74789916,3.25042017 7.7512605,3.2605042 C7.95630252,3.86218487 8.75294118,4.37647059 10.0436975,4.74957983 C11.4016807,5.14285714 13.1798319,5.35462185 15.1058824,5.33109244 C17.0117647,5.31092437 18.8033613,5.07226891 20.1579832,4.65546218 C21.4084034,4.26890756 22.1882353,3.75462185 22.4067227,3.1697479 C22.410084,3.15966387 22.4201681,3.14957983 22.4268908,3.14285714 C22.2352941,2.51092437 21.4655462,1.99663866 20.1210084,1.60672269 C18.7630252,1.21344538 16.9680672,0.994957983 15.0554622,1.02521008 C13.1462185,1.04201681 11.3512605,1.27731092 10,1.69747899 Z M12.8605042,13.2672269 C12.8638655,13.2672269 12.8605042,15.005042 12.8605042,16.8403361 C13.6235294,16.9142857 14.4168067,16.9579832 15.2201681,16.9478992 C17.1226891,16.9277311 18.9176471,16.6890756 20.2722689,16.2722689 C21.6134454,15.8588235 22.3361345,15.2336134 22.5815126,14.7697479 L22.5411765,10.3831933 C22.0168067,10.7932773 21.3310924,11.1394958 20.5109244,11.3915966 C19.0689076,11.8386555 17.1731092,12.0941176 15.1764706,12.1109244 L14.9411765,12.1109244 C14.1277311,12.1109244 13.3378151,12.0739496 12.5882353,11.9966387 C12.7836245,12.3908026 12.8772262,12.8276106 12.8605042,13.2672269 Z M23.4655462,3.43529412 L23.6236612,20.097479 C23.6369748,21.3579832 22.6218487,22.312605 20.6084034,22.9344538 C19.1563025,23.3815126 17.2605042,23.6369748 15.2672269,23.6571429 L15.0420168,23.6571429 C13.1294118,23.6571429 11.3176471,23.4352941 9.91596639,23.0352941 C9.32436975,22.8638655 8.81344538,22.6621849 8.39663866,22.4336134 C8.34621849,22.4067227 8.30252101,22.3697479 8.26554622,22.3226891 L2.59495798,22.3260504 C1.73781513,22.3260504 1.06890756,22.0773109 0.611764706,21.5865546 C-0.0605042017,20.8672269 1.14936272e-15,19.8991597 0.00336134454,19.8588235 L0.00336134454,13.2201681 C0.00336134454,12.4504202 0.242016807,11.8420168 0.712605042,11.4117647 C1.15966387,11.005042 1.7210084,10.8605042 2.1210084,10.810084 L2.1210084,9.76806723 C2.1210084,6.64201681 4.24201681,5.51260504 6.22521008,5.49243697 C6.38655462,5.48907563 6.5512605,5.49243697 6.71260504,5.50252101 L6.68907563,3.59663866 C6.68907563,3.40168067 6.71260504,3.20672269 6.76638655,3.01512605 L6.76638655,3.01176471 C7.03865546,2.03697479 8.02689076,1.27731092 9.70420168,0.756302521 C11.1462185,0.309243697 13.0420168,0.0537815126 15.0420168,0.0336134454 C17.0386555,0.0168067227 18.9478992,0.235294118 20.3966387,0.65210084 C22.4201681,1.24033613 23.4521008,2.17478992 23.4655462,3.43529412 Z" id="Data-security_Seguridad-de-datos_1light"></path>
        </g>
    </g>
</svg>

<svg width="24" height="24" viewBox="0 0 24 24" xmlns="http://www.w3.org/2000/svg"><path d="M6.397 17.748c1.233-.02 1.233-.992 1.233-1.308 0-.319 0-1.29-1.25-1.32l-.148-.004h-.037c-1.213.01-1.213.955-1.213 1.308 0 .322 0 1.307 1.233 1.324h.182zm.006-3.614c.454.01 2.219.189 2.219 2.306 0 2.121-1.768 2.29-2.212 2.296-.05 0-.097.003-.148.003l-.064-.003c-.467-.007-2.211-.175-2.211-2.312 0-2.135 1.727-2.29 2.195-2.293l.05-.003c.06 0 .12.003.171.006zm13.91 7.86c1.542-.478 2.326-1.113 2.316-1.886l-.037-3.906c-.525.41-1.214.756-2.03 1.008-1.446.447-3.338.703-5.335.723h-.232c-.733 0-1.445-.04-2.138-.104v2.047c.004.763-.235 1.368-.702 1.801-.377.35-.837.511-1.217.585 1.25.272 2.74.424 4.316.407 1.902-.017 3.697-.259 5.059-.676zM1.345 20.92c.265.279.685.42 1.25.42l7.657-.003c.037 0 .777.04 1.23-.383.26-.242.384-.592.384-1.073-.004-2.195 0-6.655 0-6.655.003-.044.037-.629-.34-1.029-.265-.282-.696-.427-1.274-.427-2.215 0-7.371.007-7.637.007h-.027c-.013 0-.027 0-.04-.003-.003 0-.03-.004-.074-.004-.195 0-.736.034-1.096.367-.255.235-.383.598-.383 1.079v6.675c-.003.04-.034.629.35 1.029zM6.232 6.477c-.938.01-3.123.343-3.123 3.291v1.022c1.284-.003 4.662-.007 6.639-.007v-.995c0-2.92-2.219-3.284-3.173-3.307-.101-.004-.225 0-.343-.004zM7.694 4.73l.014.925c1.26.316 3.038 1.264 3.038 4.138v.917c1.274.29 2.804.44 4.417.417 1.906-.017 3.7-.259 5.049-.676 1.344-.416 2.064-1.038 2.312-1.505l-.04-4.333c-.497.39-1.17.72-2.034.988-1.442.447-3.337.703-5.334.72h-.239c-1.912 0-3.72-.216-5.112-.62-.878-.258-1.567-.58-2.07-.97zM10 1.697c-1.29.4-2.07.932-2.262 1.54.003.007.01.013.013.024.205.601 1.002 1.115 2.293 1.489 1.358.393 3.136.605 5.062.581 1.906-.02 3.697-.259 5.052-.676 1.25-.386 2.03-.9 2.249-1.485.003-.01.013-.02.02-.027-.192-.632-.961-1.146-2.306-1.536-1.358-.394-3.153-.612-5.066-.582-1.909.017-3.704.252-5.055.672zm2.86 11.57c.004 0 0 1.738 0 3.573.764.074 1.557.118 2.36.108 1.903-.02 3.698-.259 5.052-.676 1.341-.413 2.064-1.038 2.31-1.502l-.04-4.387c-.525.41-1.21.756-2.031 1.009-1.442.447-3.338.702-5.335.719h-.235c-.813 0-1.603-.037-2.353-.114.196.394.29.83.273 1.27zm10.606-9.832l.158 16.662c.013 1.261-1.002 2.216-3.016 2.837-1.452.448-3.347.703-5.34.723h-.226c-1.913 0-3.724-.222-5.126-.622a7.567 7.567 0 01-1.52-.601.413.413 0 01-.13-.111l-5.671.003c-.857 0-1.526-.249-1.983-.74C-.061 20.868 0 19.9.003 19.86V13.22c0-.77.239-1.378.71-1.808.447-.407 1.008-.551 1.408-.602V9.768c0-3.126 2.121-4.255 4.104-4.276.162-.003.326 0 .488.01l-.024-1.905c0-.195.024-.39.077-.582v-.003c.273-.975 1.26-1.735 2.938-2.256C11.146.31 13.042.054 15.042.034c1.997-.017 3.906.201 5.355.618 2.023.588 3.055 1.523 3.069 2.783z" fill="#5CB615" fill-rule="nonzero"/></svg>
